X: 07015
T: CABOT STREET
C: Bob McQuillen 6 Feb 89
B: Bob's Note Book 7 #15
%R: reel
Z: 2020 John Chambers <jc:trillian.mit.edu>
M: C
L: 1/8
K: D
fe \
| d2AF Adfe | d2AF A2AG | FAdf edAd | BdAF Egfe |
| d2AF Adfe | dBAF A2AG | FAdf gecd | e2dc d2  :|
|: ag \
| f2dA dfag | fafd A2AG | FAdf dAdf | afdf e2ag |
| f2dA dfag | fafd ABAG | FAdf geag | f2d2 d2  :|
%%begintext align
%% Dave Surette
%% lives on Cabot Street in Portsmouth, N.H.,
%% where April used to live. Dave and Sarah
%% Bauhan and Jane Orzechowski make up the
%% band "Greengate", (named after Newt Tolman's
%% place in Nelson); sometimes I get to play with them.
%%endtext

%%sep 1 1 500

%%sep 1 1 500

